X:1881
T:"Zigenerskan" polska efter Aina Liljebjörn
R:Polska
S:Efter Aina Liljebjörn
O:Gustafsfors, Värmland
Z:ABC-transkribering av Per Saxholm
M:3/4
L:1/8
K:Am
|Ace2A2|^GBe4|^GBe2d2|(3cdc (3BcB A2|Ace2A2|^GBe4|^GB ed (3BcB|A2A4:|af df af|ec Ac e2|b^g e^g b^g|ae ce a2|af df af|ec Ac e2|b^g e^g b^g|a2 a4:|| 
(:musicend:)
(:music:)
